X: 1
T: Blessings
Z: Gideon Klionsky
C: Liturgy
M: 4/4
L: 1/4
%Q: 1/4=100
K: F
P: L'hadlik Ner and She'asa Nissim (all nights)
C|"F"F>GAG/>F/|F3 F/G/ | AA c/c/B/A/ | "C"G2-G3/C/ | "C7"B B/A/G/F/E/F/ |
G/A/G2 A/B/ | "Am"cA>AB/c/ | "D7"d2 "C7"(3 cGB | "F"A2 "C7/E"G2 | "F"F3 :| C |
P: Shehecheyanu (first night only)
"F"F>GAG/>F/|F3 F/G/ | AA c/c/B/A/ | "C"G2-G3/C/ |
"F" A/>A/ A "Dm"F>F | "Gm" B/>B/ B "C7" G>G | "Am" c/>c/ c "Dm" F "Gm"(3G/A/B/ | "F" A2 "C7"G2 | "F"F3 |]
%
W:בָּרוּךְ אַתָּה אֲדֹנָי אֱלֹהֵינוּ מֶלֶךְ הָעוֹלָם
W:   אֲשֶׁר קִדְּשָׁנוּ בְּמִצְוֹתָיו וְצִוָּנוּ לְהַדְלִיק נֵר שֶׁל חֲנֻכָּה
W:
W:בָּרוּךְ אַתָּה אֲדֹנָי אֱלֹהֵינוּ מֶלֶךְ הָעוֹלָם
W:   שֶׁעָשָׂה נִסִּים לַאֲבוֹתֵינוּ בַּיָּמִים הָהֵם בִּזְּמַן הַזֶּה
W:
W:בָּרוּךְ אַתָּה אֲדֹנָי אֱלֹהֵינוּ מֶלֶךְ הָעוֹלָם
W:   שֶׁהֶחֱיָנוּ וְקִיְּמָנוּ וְהִגִּיעָנוּ לִזְּמַן הַזֶּה
W:
W: Baruch ata Adonai Eloheinu, melech ha'olam,
W:asher kid'shanu b'mitzvotav v'tzivanu l'hadlik ner shel Hanukkah.
W:
W: Baruch ata Adonai Eloheinu, melech ha'olam,
W:she'asa nissim la'avoteinu bayamim haheim baz'man hazeh.
W:
W: Baruch ata Adonai Eloheinu, melech ha'olam,
W:shehecheyanu v'kiy'manu v'higi'anu laz'man hazeh.

